assets/Card index/Flat/card_index_flat.svg

<svg width="32" height="32" viewBox="0 0 32 32" fill="none" xmlns="http://www.w3.org/2000/svg">
<path d="M8.45445 15H23.5456C24.9217 15 26 13.858 26 12.5088V3.49124C26 2.14197 24.9217 1 23.5456 1H8.45445C7.07832 1 6 2.14197 6 3.49124V12.5088C6 13.858 7.07832 15 8.45445 15Z" fill="#CDC4D6"/>
<path d="M28.32 10.98H28H25.22H6.78H4H3.68C2.75 10.98 2 11.73 2 12.65V16.8C2 17.73 2.75 18.48 3.68 18.48H4V26.86C4 28.58 5.4 29.98 7.12 29.98H24.88C26.6 29.98 28 28.58 28 26.86V18.48H28.32C29.25 18.48 30 17.73 30 16.8V12.65C30 11.73 29.25 10.98 28.32 10.98Z" fill="#635994"/>
<path d="M8.45445 14H23.5456C24.346 14 25 13.3294 25 12.5088V3.49124C25 2.67056 24.346 2 23.5456 2H8.45445C7.65401 2 7 2.67056 7 3.49124V12.5088C7 13.3294 7.65401 14 8.45445 14Z" fill="#F3EEF8"/>
<path d="M8.45445 27H23.5456C24.346 27 25 26.3394 25 25.5088V16.4912C25 15.6706 24.346 15 23.5456 15H8.45445C7.65401 15 7 15.6706 7 16.4912V25.5088C7 26.3294 7.65401 27 8.45445 27Z" fill="#F3EEF8"/>
<path d="M11 12.72C11 12.4438 10.7761 12.22 10.5 12.22C10.2239 12.22 10 12.4438 10 12.72V16.75C10 17.0261 10.2239 17.25 10.5 17.25C10.7761 17.25 11 17.0261 11 16.75V12.72Z" fill="#321B41"/>
<path d="M22 12.72C22 12.4438 21.7761 12.22 21.5 12.22C21.2239 12.22 21 12.4438 21 12.72V16.75C21 17.0261 21.2239 17.25 21.5 17.25C21.7761 17.25 22 17.0261 22 16.75V12.72Z" fill="#321B41"/>
<path d="M14.2538 11H9.74617C9.32709 11 9 10.6662 9 10.2616V4.73844C9 4.33382 9.32709 4 9.74617 4H14.2538C14.6627 4 15 4.3237 15 4.73844V10.2616C14.9898 10.6662 14.6627 11 14.2538 11Z" fill="#00A6ED"/>
<path d="M17.5601 4C17.2839 4 17.0601 4.22386 17.0601 4.5C17.0601 4.77614 17.2839 5 17.5601 5H22.4001C22.6762 5 22.9001 4.77614 22.9001 4.5C22.9001 4.22386 22.6762 4 22.4001 4H17.5601Z" fill="#998EA4"/>
<path d="M17.5601 8C17.2839 8 17.0601 8.22386 17.0601 8.5C17.0601 8.77614 17.2839 9 17.5601 9H22.4001C22.6762 9 22.9001 8.77614 22.9001 8.5C22.9001 8.22386 22.6762 8 22.4001 8H17.5601Z" fill="#998EA4"/>
<path d="M17.0601 6.5C17.0601 6.22386 17.2839 6 17.5601 6H22.4001C22.6762 6 22.9001 6.22386 22.9001 6.5C22.9001 6.77614 22.6762 7 22.4001 7H17.5601C17.2839 7 17.0601 6.77614 17.0601 6.5Z" fill="#998EA4"/>
<path d="M17.5601 10C17.2839 10 17.0601 10.2239 17.0601 10.5C17.0601 10.7761 17.2839 11 17.5601 11H22.4001C22.6762 11 22.9001 10.7761 22.9001 10.5C22.9001 10.2239 22.6762 10 22.4001 10H17.5601Z" fill="#998EA4"/>
</svg>

<svg xmlns="http://www.w3.org/2000/svg" width="32" height="32" fill="none"><path fill="#CDC4D6" d="M8.454 15h15.092C24.922 15 26 13.858 26 12.509V3.49C26 2.142 24.922 1 23.546 1H8.454C7.078 1 6 2.142 6 3.491v9.018C6 13.858 7.078 15 8.454 15Z"/><path fill="#635994" d="M28.32 10.98H3.68c-.93 0-1.68.75-1.68 1.67v4.15c0 .93.75 1.68 1.68 1.68H4v8.38c0 1.72 1.4 3.12 3.12 3.12h17.76c1.72 0 3.12-1.4 3.12-3.12v-8.38h.32c.93 0 1.68-.75 1.68-1.68v-4.15c0-.92-.75-1.67-1.68-1.67Z"/><path fill="#F3EEF8" d="M8.454 14h15.092c.8 0 1.454-.67 1.454-1.491V3.49C25 2.671 24.346 2 23.546 2H8.454C7.654 2 7 2.67 7 3.491v9.018C7 13.329 7.654 14 8.454 14ZM8.454 27h15.092c.8 0 1.454-.66 1.454-1.491V16.49c0-.82-.654-1.491-1.454-1.491H8.454C7.654 15 7 15.67 7 16.491v9.018C7 26.329 7.654 27 8.454 27Z"/><path fill="#321B41" d="M11 12.72a.5.5 0 1 0-1 0v4.03a.5.5 0 0 0 1 0v-4.03ZM22 12.72a.5.5 0 1 0-1 0v4.03a.5.5 0 0 0 1 0v-4.03Z"/><path fill="#00A6ED" d="M14.254 11H9.746A.74.74 0 0 1 9 10.262V4.738A.74.74 0 0 1 9.746 4h4.508a.74.74 0 0 1 .746.738v5.524a.753.753 0 0 1-.746.738Z"/><path fill="#998EA4" d="M17.56 4a.5.5 0 1 0 0 1h4.84a.5.5 0 0 0 0-1h-4.84ZM17.56 8a.5.5 0 1 0 0 1h4.84a.5.5 0 0 0 0-1h-4.84ZM17.06 6.5a.5.5 0 0 1 .5-.5h4.84a.5.5 0 0 1 0 1h-4.84a.5.5 0 0 1-.5-.5ZM17.56 10a.5.5 0 1 0 0 1h4.84a.5.5 0 0 0 0-1h-4.84Z"/></svg>
